X: 12789
T: Fear A' Bhàta
R: waltz
M: 3/4
K: Aminor
|:AB||"C"c6|c4 g2|e3 d c2|"G"B6|d6|e4 d2|"Am"A6|A4 c2|
B4 A2|"Em"G6|E6|E4 G2|"F"A6|A6|G4 A2|"C"c6|
"G"d6|z2 a2 g2|"Am"e6|"G"d4 c2|"Em"B3 AG2|"F"A6|A6|A4:|

